docs/img/all-services/15.svg

<svg width="80" height="80" viewBox="0 0 80 80" fill="none" xmlns="http://www.w3.org/2000/svg">
<path d="M75.4366 65.6581L73.9318 66.9479L66.5532 57.461L74.774 45.7169L72.726 44.2832L63.976 56.7832C63.8227 57.0021 63.7437 57.2643 63.7504 57.5314C63.7571 57.7986 63.8493 58.0565 64.0134 58.2674L64.958 59.4819L61.9703 61.9579L58.9302 52.8377L60.8839 50.884C61.0694 50.6984 61.1919 50.4592 61.2339 50.2002C61.2759 49.9412 61.2353 49.6756 61.118 49.4409L59.868 46.9409C59.7901 46.7852 59.6806 46.6474 59.5463 46.5365C59.4121 46.4255 59.2562 46.3439 59.0885 46.2967C58.9209 46.2495 58.7452 46.2379 58.5729 46.2626C58.4005 46.2873 58.2351 46.3477 58.0875 46.44L57.4133 46.8614L56.9934 45.6618C56.7246 44.905 56.2212 44.2537 55.5564 43.803C54.8916 43.3523 54.1003 43.1257 53.2977 43.1562L52.8376 41.25H56.25C56.4558 41.2497 56.6583 41.1988 56.8398 41.1018C57.0212 41.0048 57.176 40.8647 57.2906 40.6938C59.254 37.7464 62.142 35.5358 65.4998 34.4103C68.8576 33.2847 72.4944 33.308 75.8375 34.4766L76.6625 32.1172C72.9053 30.8035 68.824 30.7395 65.0274 31.9349C61.2308 33.1302 57.9223 35.5207 55.5953 38.75H49.7063C46.9592 38.7503 44.2234 39.1021 41.5656 39.7969L37.1344 35.3656C36.9165 35.1484 36.6263 35.019 36.3191 35.002C36.0119 34.985 35.7093 35.0816 35.4688 35.2735L33.5 36.8485C31.0086 34.8351 27.9 33.741 24.6969 33.75H2.5V36.25H24.6969C25.5766 36.2493 26.4536 36.3484 27.3109 36.5454C25.3261 36.6557 23.3983 37.2495 21.6953 38.275L20.9031 38.75H2.5V41.25H20V51.25H2.5V53.75H21.25C21.4142 53.7501 21.5767 53.7178 21.7284 53.655C21.8801 53.5922 22.0179 53.5001 22.134 53.384C22.2501 53.2679 22.3421 53.1301 22.4049 52.9784C22.4677 52.8268 22.5 52.6642 22.5 52.5V50H24.7047L25.1062 50.2C23.8163 51.7333 22.6723 53.3837 21.6891 55.1297L3.52031 58.5376L3.97969 60.9938L22.0813 57.6001L22.082 57.5999L26.6161 62.134L28.3839 60.3661L24.0512 56.0334L24.0516 56.0328C24.8115 54.7217 25.6714 53.4712 26.6235 52.2922L37.9766 75H2.5V77.5H61.8013C64.1637 77.4995 66.4481 76.6544 68.242 75.1174L77.0634 67.5563L75.4366 65.6581ZM41.0172 42.7844L42.2078 43.975C40.6987 46.5515 38.3751 48.5525 35.6031 49.6625L34.8687 48.1906L34.7375 47.9297C37.2408 46.7871 39.4046 45.0141 41.0172 42.7844V42.7844ZM36.1578 37.925L39.2219 40.9891C38.571 41.9484 37.7984 42.8192 36.9234 43.5797C37.0222 42.9443 36.9206 42.2939 36.6328 41.7188L36.6141 41.6828C36.3618 41.1742 35.972 40.7463 35.489 40.4478C35.006 40.1493 34.4491 39.992 33.8813 39.9938H33.5703L33.6656 39.9188L36.1578 37.925ZM25 47.5H22.5V40.7078L22.9813 40.4188C24.0824 39.7543 25.305 39.3162 26.5776 39.1303C27.8501 38.9443 29.147 39.0143 30.3922 39.336L29.2188 40.2735C29.0165 40.4353 28.8695 40.656 28.7981 40.9051C28.7267 41.1541 28.7344 41.4192 28.8202 41.6637C28.9059 41.9081 29.0655 42.1199 29.2769 42.2697C29.4882 42.4196 29.7409 42.5 30 42.5H30.0016L33.8797 42.4938H33.8813C33.9838 42.4934 34.0845 42.5215 34.1719 42.575C34.2594 42.6286 34.3303 42.7054 34.3766 42.7969L34.3938 42.8328C34.4619 42.9676 34.4786 43.1225 34.4406 43.2687C34.4026 43.4148 34.3126 43.5421 34.1875 43.6266C33.114 44.3375 31.8063 45.2094 31.8063 45.2094C31.553 45.3788 31.3702 45.6347 31.292 45.9292C31.2137 46.2237 31.2455 46.5366 31.3813 46.8094L31.9 47.8453L27.675 48.6907L25.5594 47.6313C25.3855 47.5451 25.1941 47.5002 25 47.5V47.5ZM40.7734 75L28.7812 51.0172L33.0578 50.1625L33.8813 51.8094C34.0218 52.0896 34.2625 52.3069 34.5555 52.4183C34.8486 52.5297 35.1728 52.5271 35.4641 52.411L36.5234 51.9859C40.1525 50.5371 43.1225 47.8051 44.8687 44.3094C44.9858 44.0745 45.0262 43.8088 44.9841 43.5497C44.9421 43.2907 44.8197 43.0514 44.6344 42.8656L43.6453 41.8765C45.6386 41.4593 47.6698 41.2494 49.7063 41.25H50.2659L50.8826 43.8048L49.3011 44.332C48.4072 44.6341 47.6592 45.2608 47.2051 46.088C46.751 46.9152 46.6239 47.8827 46.8489 48.7992L48.7874 56.5532C48.8424 56.773 48.956 56.9737 49.1161 57.134L51.2865 59.3042L51.9296 68.3083C52.1173 70.8874 53.3091 73.2901 55.2489 75H40.7734ZM66.615 73.2193C65.575 74.1108 64.3078 74.6959 62.9548 74.9095C61.6017 75.1231 60.216 74.9569 58.9519 74.4292C57.6878 73.9015 56.595 73.0332 55.7954 71.921C54.9958 70.8088 54.5208 69.4964 54.4232 68.1301L53.7468 58.6609C53.7254 58.361 53.5966 58.0788 53.384 57.8661L51.1287 55.611L49.2741 48.1928C49.1991 47.8873 49.2415 47.5648 49.3929 47.2891C49.5443 47.0133 49.7937 46.8045 50.0917 46.7038L53.0586 45.7147C53.3701 45.6123 53.7093 45.6358 54.0037 45.7803C54.2981 45.9247 54.5242 46.1786 54.6338 46.4876L55.5702 49.1629C55.6322 49.3399 55.7332 49.5007 55.8657 49.6334C55.9982 49.7661 56.1589 49.8673 56.3358 49.9294C56.5128 49.9916 56.7014 50.0131 56.8878 49.9924C57.0742 49.9718 57.2535 49.9094 57.4126 49.8101L58.2468 49.2887L58.479 49.7531L56.6161 51.6161C56.4519 51.7802 56.3367 51.9868 56.2834 52.2128C56.2301 52.4387 56.2407 52.675 56.3141 52.8952L59.9054 63.6692L57.9524 65.2877L59.5476 67.2124L66.4935 61.4561L72.0316 68.5766L66.615 73.2193Z" fill="#0098D0"/>
<path d="M17.5 50C18.1904 50 18.75 49.4404 18.75 48.75C18.75 48.0596 18.1904 47.5 17.5 47.5C16.8096 47.5 16.25 48.0596 16.25 48.75C16.25 49.4404 16.8096 50 17.5 50Z" fill="#0098D0"/>
<path d="M20 32.5H60C60.3315 32.5 60.6494 32.3683 60.8839 32.1339C61.1183 31.8994 61.25 31.5815 61.25 31.25V3.75C61.25 3.41848 61.1183 3.10055 60.8839 2.86613C60.6494 2.63172 60.3315 2.50002 60 2.5H20C19.6685 2.50002 19.3506 2.63172 19.1161 2.86613C18.8817 3.10055 18.75 3.41848 18.75 3.75V31.25C18.75 31.5815 18.8817 31.8994 19.1161 32.1339C19.3506 32.3683 19.6685 32.5 20 32.5V32.5ZM21.25 5H58.75V30H21.25V5Z" fill="#0098D0"/>
<path d="M56.25 6.25H23.75C23.4185 6.25002 23.1006 6.38172 22.8661 6.61613C22.6317 6.85055 22.5 7.16848 22.5 7.5V27.5C22.5 27.8315 22.6317 28.1494 22.8661 28.3839C23.1006 28.6183 23.4185 28.75 23.75 28.75H56.25C56.5815 28.75 56.8994 28.6183 57.1339 28.3839C57.3683 28.1494 57.5 27.8315 57.5 27.5V7.5C57.5 7.16848 57.3683 6.85055 57.1339 6.61613C56.8994 6.38172 56.5815 6.25002 56.25 6.25V6.25ZM55 26.25H25V8.75H55V26.25Z" fill="#0098D0"/>
<path d="M40.0005 24.3493C42.2146 24.3566 44.4081 23.9245 46.4541 23.0783C48.5001 22.2321 50.3579 20.9884 51.92 19.4194C52.1544 19.1849 52.2861 18.867 52.2861 18.5354C52.2861 18.2039 52.1543 17.8859 51.9199 17.6515L44.8486 10.5806C44.6142 10.3462 44.2963 10.2146 43.9648 10.2146C43.6333 10.2146 43.3154 10.3462 43.0809 10.5806C42.2632 11.3961 41.1554 11.8541 40.0005 11.8541C38.8456 11.8541 37.7378 11.3961 36.92 10.5806C36.6856 10.3462 36.3676 10.2146 36.0362 10.2146C35.7047 10.2146 35.3867 10.3462 35.1523 10.5806L28.0811 17.6515C27.8466 17.8859 27.7149 18.2039 27.7148 18.5354C27.7148 18.867 27.8465 19.1849 28.0809 19.4194C29.643 20.9884 31.5009 22.2321 33.5469 23.0783C35.5929 23.9245 37.7864 24.3566 40.0005 24.3493V24.3493ZM32.5475 16.7206C33.1283 17.1913 33.7525 17.6056 34.4118 17.9581L35.5891 15.7525C35.1475 15.5163 34.7258 15.2446 34.3282 14.9401L36.1168 13.1515C37.2606 13.9346 38.6143 14.3536 40.0005 14.3536C41.3866 14.3536 42.7404 13.9346 43.8841 13.1515L49.2305 18.4976C46.6422 20.6629 43.3751 21.8493 40.0005 21.8493C36.6259 21.8493 33.3587 20.6629 30.7704 18.4976L32.5475 16.7206Z" fill="#0098D0"/>
<path d="M39.9997 16.8517C39.2562 16.8516 38.5153 16.7638 37.7924 16.59L37.207 19.0204C38.1216 19.2405 39.059 19.3516 39.9997 19.3517V16.8517Z" fill="#0098D0"/>
<path d="M45.5884 17.9581L44.411 15.7526C43.7148 16.124 42.9742 16.4053 42.207 16.59L42.7924 19.0204C43.7656 18.7862 44.7052 18.4292 45.5884 17.9581V17.9581Z" fill="#0098D0"/>
</svg>

<svg width="80" height="80" fill="none" xmlns="http://www.w3.org/2000/svg"><path d="M75.437 65.658l-1.505 1.29-7.379-9.487 8.221-11.744-2.048-1.434-8.75 12.5a1.25 1.25 0 00.037 1.484l.945 1.215-2.988 2.476-3.04-9.12 1.954-1.954a1.25 1.25 0 00.234-1.443l-1.25-2.5a1.25 1.25 0 00-1.78-.501l-.675.421-.42-1.2a3.77 3.77 0 00-3.695-2.505l-.46-1.906h3.412a1.255 1.255 0 001.04-.556 15.958 15.958 0 0118.548-6.217l.825-2.36a18.457 18.457 0 00-21.068 6.633h-5.889a32.2 32.2 0 00-8.14 1.047l-4.432-4.431a1.253 1.253 0 00-1.665-.093L33.5 36.849a13.943 13.943 0 00-8.803-3.098H2.5v2.5h22.197c.88 0 1.757.098 2.614.295a12.19 12.19 0 00-5.616 1.73l-.792.475H2.5v2.5H20v10H2.5v2.5h18.75a1.249 1.249 0 001.25-1.25V50h2.205l.401.2a32.202 32.202 0 00-3.417 4.93L3.52 58.538l.46 2.456 18.1-3.394h.001l4.534 4.534 1.768-1.768-4.333-4.333a29.496 29.496 0 012.573-3.74L37.977 75H2.5v2.5h59.301a9.902 9.902 0 006.441-2.383l8.821-7.56-1.626-1.899zm-34.42-22.874l1.19 1.191a13.448 13.448 0 01-6.604 5.688l-.734-1.472-.132-.261a15.896 15.896 0 006.28-5.146zm-4.86-4.859l3.065 3.064a13.37 13.37 0 01-2.299 2.59 3.095 3.095 0 00-.29-1.86l-.019-.036a3.04 3.04 0 00-2.733-1.69h-.31l.095-.074 2.492-1.994zM25 47.5h-2.5v-6.792l.481-.29a9.664 9.664 0 017.411-1.082l-1.173.938A1.25 1.25 0 0030 42.5h.002l3.878-.006h.001a.553.553 0 01.496.303l.017.036a.62.62 0 01-.206.794c-1.074.71-2.382 1.582-2.382 1.582a1.253 1.253 0 00-.425 1.6l.519 1.036-4.225.846-2.116-1.06A1.262 1.262 0 0025 47.5zM40.773 75L28.781 51.017l4.277-.855.823 1.647a1.252 1.252 0 001.583.602l1.06-.425a15.927 15.927 0 008.345-7.677 1.252 1.252 0 00-.235-1.443l-.989-.99a29.544 29.544 0 016.061-.626h.56l.617 2.555-1.582.527a3.767 3.767 0 00-2.452 4.467l1.938 7.754c.055.22.169.42.33.581l2.17 2.17.643 9.004A9.876 9.876 0 0055.249 75H40.773zm25.842-1.78a7.396 7.396 0 01-12.192-5.09l-.676-9.47a1.25 1.25 0 00-.363-.794l-2.255-2.255-1.855-7.418a1.256 1.256 0 01.818-1.49l2.967-.988a1.255 1.255 0 011.575.773l.936 2.675a1.251 1.251 0 001.843.647l.834-.521.232.464-1.863 1.863a1.249 1.249 0 00-.302 1.28l3.591 10.773-1.953 1.619 1.596 1.924 6.945-5.756 5.539 7.12-5.417 4.643z" fill="#0098D0"/><path d="M17.5 50a1.25 1.25 0 100-2.5 1.25 1.25 0 000 2.5zM20 32.5h40a1.25 1.25 0 001.25-1.25V3.75A1.25 1.25 0 0060 2.5H20a1.25 1.25 0 00-1.25 1.25v27.5A1.25 1.25 0 0020 32.5zM21.25 5h37.5v25h-37.5V5z" fill="#0098D0"/><path d="M56.25 6.25h-32.5A1.25 1.25 0 0022.5 7.5v20a1.25 1.25 0 001.25 1.25h32.5a1.25 1.25 0 001.25-1.25v-20a1.25 1.25 0 00-1.25-1.25zm-1.25 20H25V8.75h30v17.5z" fill="#0098D0"/><path d="M40 24.35a16.741 16.741 0 0011.92-4.93 1.25 1.25 0 000-1.769l-7.071-7.07a1.25 1.25 0 00-1.768 0 4.362 4.362 0 01-6.161 0 1.25 1.25 0 00-1.768 0l-7.07 7.07a1.25 1.25 0 00-.001 1.768A16.743 16.743 0 0040 24.35zm-7.453-7.63c.581.471 1.206.886 1.865 1.238l1.177-2.205a9.246 9.246 0 01-1.26-.813l1.788-1.788a6.874 6.874 0 007.767 0l5.346 5.346a14.385 14.385 0 01-18.46 0l1.777-1.777z" fill="#0098D0"/><path d="M40 16.852a9.448 9.448 0 01-2.208-.262l-.585 2.43c.915.22 1.852.332 2.793.332v-2.5zm5.588 1.106l-1.177-2.205a9.314 9.314 0 01-2.204.837l.585 2.43a11.815 11.815 0 002.796-1.062z" fill="#0098D0"/></svg>
